lib/logo_tmp/nrk-logo-nrk-sami-radio-title-below-on-dark.svg

<svg width="83" height="41" viewBox="0 0 83 41" fill="none" xmlns="http://www.w3.org/2000/svg">
<path d="M0 17.9966V5.99767H3.93719V17.9966H0ZM9.29381 7.90736L11.5581 17.9966H7.24917L4.54549 5.99767H6.96218C7.51635 5.99048 8.05406 6.18583 8.4745 6.54697C8.89562 6.89296 9.18495 7.37328 9.29381 7.90736ZM12.1495 17.9966V5.99767H16.0867V17.9966H12.1495ZM19.0605 10.5607C18.6362 10.5648 18.2188 10.4538 17.8525 10.2395C17.4912 10.0307 17.1911 9.73054 16.9823 9.36918C16.7678 9.00291 16.6568 8.58534 16.661 8.1609C16.6561 7.73904 16.7672 7.32396 16.9823 6.96101C17.1933 6.60357 17.4931 6.30668 17.8525 6.0991C18.2189 5.88508 18.6362 5.7741 19.0605 5.77797C19.4822 5.77342 19.8971 5.88451 20.2602 6.0991C20.616 6.30849 20.9127 6.60514 21.122 6.96101C21.3368 7.32406 21.4479 7.73908 21.4433 8.1609C21.4473 8.58531 21.3363 9.00281 21.122 9.36918C20.9149 9.72896 20.6179 10.0289 20.2602 10.2395C19.8971 10.4546 19.4819 10.5657 19.0599 10.5607H19.0605ZM22.0516 17.9966V5.99767H25.9892V17.9966H22.0516ZM30.9737 12.5548C30.9848 12.5665 31.0693 12.7045 31.2272 12.9689C31.3851 13.2332 31.5907 13.5713 31.8439 13.9829C32.0974 14.3943 32.3649 14.8308 32.6463 15.2926C32.9278 15.7543 33.1926 16.1909 33.4408 16.6024C33.6881 17.0138 33.9697 17.4785 34.2857 17.9966H29.9598C29.6893 17.5572 29.4441 17.16 29.2245 16.8051C29.0048 16.4503 28.7713 16.0672 28.5238 15.6559C28.2758 15.2451 28.0306 14.8451 27.7882 14.456C27.5458 14.067 27.3375 13.7262 27.1633 13.4336C26.9883 13.1409 26.8671 12.9437 26.7997 12.8421C26.6325 12.59 26.5336 12.2989 26.5127 11.9971C26.5294 11.7075 26.6226 11.4276 26.7828 11.1857C26.8504 11.073 26.9743 10.873 27.1545 10.5857C27.3348 10.2984 27.546 9.95764 27.7882 9.56331C28.0304 9.16898 28.2756 8.76619 28.5238 8.35496C28.772 7.94373 29.0056 7.55782 29.2245 7.19729C29.4445 6.83713 29.6897 6.43717 29.9598 5.9974H34.2857L30.9396 11.4561C30.8361 11.6181 30.7777 11.8049 30.7706 11.9971C30.7818 12.1989 30.8522 12.3929 30.9731 12.5548H30.9737Z" fill="white"/>
<path d="M8.03172 30.2394C8.17149 30.6588 8.23817 31.0992 8.22886 31.5412C8.24819 32.1346 8.12782 32.7243 7.87743 33.2628C7.65013 33.7174 7.30725 34.1043 6.88314 34.3847C6.4287 34.6812 5.92291 34.8903 5.39172 35.0014C4.79183 35.1305 4.17962 35.1937 3.566 35.1898C3.29172 35.1898 3.02029 35.1784 2.75171 35.1556C2.48314 35.1327 2.21457 35.1013 1.946 35.0614C1.66601 35.0191 1.38847 34.9619 1.11457 34.8901C0.812816 34.811 0.515287 34.7167 0.223143 34.6074L0 32.9116C0.274286 33.0144 0.562953 33.1144 0.866 33.2116C1.16905 33.3089 1.48038 33.3916 1.8 33.4597C2.11962 33.5283 2.43962 33.5825 2.76 33.6225C3.06702 33.6618 3.37619 33.6818 3.68572 33.6824C4.00419 33.6852 4.32236 33.6623 4.63714 33.6139C4.89494 33.575 5.14598 33.5001 5.38286 33.3912C5.59246 33.294 5.77934 33.154 5.93143 32.9801C6.08291 32.8039 6.19928 32.6004 6.27429 32.3806C6.35862 32.1266 6.39929 31.8602 6.39457 31.5926C6.4007 31.3411 6.357 31.0909 6.266 30.8563C6.18761 30.6615 6.06769 30.4862 5.91457 30.3424C5.75305 30.1969 5.57113 30.0757 5.37457 29.9827C5.14566 29.8736 4.90761 29.7847 4.66314 29.7172C4.4001 29.6433 4.11438 29.572 3.806 29.5031C3.42848 29.4235 3.05991 29.3264 2.70029 29.2119C2.35483 29.1038 2.01931 28.9663 1.69743 28.8008C1.39378 28.6446 1.1162 28.4424 0.874572 28.2012C0.6303 27.955 0.44049 27.6603 0.317429 27.3362C0.177455 26.9493 0.110607 26.5398 0.120286 26.1285C0.106957 25.5972 0.215438 25.0699 0.437429 24.5869C0.645354 24.157 0.957593 23.7859 1.34571 23.5074C1.76702 23.2096 2.24115 22.9945 2.74286 22.8736C3.33195 22.7305 3.93663 22.6614 4.54286 22.6681C4.84 22.6681 5.13133 22.6823 5.41686 22.7109C5.69901 22.739 5.97949 22.7819 6.25714 22.8394C6.53143 22.8965 6.80276 22.9651 7.07114 23.0452C7.33488 23.1231 7.59045 23.2264 7.83429 23.3535L7.59429 24.8609C7.37749 24.7418 7.15085 24.6415 6.91686 24.5612C6.66711 24.4745 6.41237 24.403 6.154 24.347C5.88807 24.2896 5.61919 24.2467 5.34857 24.2186C5.08091 24.1905 4.81199 24.1762 4.54286 24.1758C4.2475 24.174 3.95241 24.1941 3.66 24.2357C3.41409 24.2692 3.17441 24.3384 2.94857 24.4413C2.75123 24.5329 2.56911 24.6542 2.40857 24.801C2.25365 24.9448 2.13599 25.1241 2.06571 25.3234C1.98795 25.5493 1.95024 25.787 1.95429 26.0258C1.94864 26.2563 1.98644 26.4858 2.06571 26.7024C2.13695 26.8866 2.25163 27.0509 2.4 27.1814C2.55768 27.3191 2.73363 27.4344 2.92286 27.524C3.14298 27.6285 3.3726 27.7117 3.60857 27.7724C3.86572 27.8409 4.14276 27.9094 4.43972 27.978C4.82829 28.0581 5.20543 28.1552 5.57114 28.2692C5.92808 28.3799 6.2751 28.5202 6.60857 28.6888C6.92657 28.849 7.21613 29.0602 7.46572 29.3141C7.71914 29.5778 7.91216 29.8934 8.03143 30.2391M17.9657 33.9051C18.065 33.892 18.1627 33.8691 18.2574 33.8366L18.0689 34.9843C18.0046 35.0092 17.9386 35.0292 17.8714 35.0442C17.7969 35.0614 17.7143 35.0811 17.6229 35.1042C17.5302 35.1269 17.4356 35.1413 17.3403 35.147C17.2429 35.1524 17.1429 35.1556 17.04 35.1556C16.7055 35.1615 16.3733 35.1003 16.0629 34.9757C15.782 34.8602 15.5471 34.6555 15.3943 34.3933C15.3047 34.2366 15.242 34.0661 15.2086 33.8888C15.1027 34.0144 14.9902 34.1342 14.8714 34.2477C14.559 34.5434 14.1924 34.7761 13.7917 34.9329C13.3281 35.1025 12.8368 35.1839 12.3431 35.1727C11.8162 35.1911 11.2935 35.0731 10.8257 34.8301C10.4423 34.6242 10.1268 34.3119 9.91714 33.9308C9.71724 33.5598 9.61416 33.1445 9.61743 32.7232C9.61514 32.2741 9.74957 31.835 10.0029 31.4641C10.3017 31.0475 10.7075 30.719 11.1774 30.5134C11.8054 30.2384 12.4806 30.0871 13.166 30.0681L15.1697 29.9325L15.1714 29.5028C15.1763 29.2111 15.1417 28.9201 15.0686 28.6377C15.0091 28.4087 14.8909 28.1992 14.7257 28.0296C14.5399 27.8557 14.3129 27.7319 14.066 27.6699C13.7273 27.583 13.3784 27.5427 13.0289 27.55C12.8003 27.55 12.5688 27.5586 12.3343 27.5757C12.0955 27.5934 11.858 27.6249 11.6229 27.6699C11.3829 27.716 11.1344 27.7731 10.8774 27.8412C10.6205 27.9094 10.349 27.995 10.0629 28.0982L10.2689 26.6421C10.5628 26.5251 10.8632 26.425 11.1686 26.3424C11.498 26.2537 11.8332 26.1879 12.1717 26.1454C12.5298 26.0994 12.8904 26.0766 13.2514 26.0769C13.7067 26.0719 14.161 26.1179 14.606 26.2139C14.9698 26.2914 15.3195 26.4243 15.6429 26.6079C15.9214 26.7676 16.1637 26.9833 16.3546 27.2414C16.5432 27.5056 16.6824 27.8016 16.7657 28.1153C16.8606 28.4729 16.9068 28.8416 16.9031 29.2116L16.8686 32.7403C16.8319 33.0553 16.8982 33.3738 17.0574 33.6482C17.1385 33.7443 17.2416 33.8194 17.3579 33.8671C17.4743 33.9148 17.6005 33.9337 17.7257 33.9222C17.806 33.9214 17.8861 33.9157 17.9657 33.9051ZM15.1563 32.8816L15.164 31.1815H13.6631C13.2133 31.1693 12.7637 31.2154 12.3257 31.3185C12.0454 31.3787 11.7925 31.5292 11.606 31.7468C11.4447 31.9831 11.3662 32.2662 11.3829 32.5519C11.3761 32.7889 11.4354 33.0232 11.5543 33.2285C11.6743 33.4221 11.8506 33.5745 12.0597 33.6653C12.3169 33.7748 12.5948 33.8274 12.8743 33.8195C13.1188 33.8201 13.3628 33.7972 13.6029 33.7509C13.8345 33.7062 14.0593 33.6313 14.2714 33.5283C14.4844 33.4246 14.6856 33.2982 14.8714 33.1514C14.9743 33.0699 15.0699 32.9796 15.1571 32.8816M15.9603 22H14.1086L12.6514 25.0662H13.9886L15.9603 22ZM31.7317 26.4366C31.2642 26.183 30.7374 26.0588 30.2057 26.0769C29.7444 26.0756 29.2864 26.1538 28.8517 26.3081C28.4101 26.4661 27.9942 26.6882 27.6174 26.9673C27.4038 27.1253 27.2006 27.297 27.0091 27.4812C26.8335 27.0524 26.5237 26.6918 26.126 26.4534C25.6529 26.1986 25.1203 26.0744 24.5831 26.0937C24.1248 26.0938 23.6698 26.1719 23.2377 26.3247C22.7941 26.4806 22.3755 26.7 21.9949 26.9759C21.8714 27.0647 21.7523 27.1609 21.6346 27.2614V26.094L19.8863 26.3509V35.0014H21.6346V28.4859C21.8406 28.3511 22.0554 28.2302 22.2774 28.1239C22.5495 27.9954 22.8339 27.8949 23.1263 27.8241C23.3954 27.7576 23.6714 27.7231 23.9486 27.7213C24.2032 27.7137 24.4567 27.7574 24.694 27.8498C24.8906 27.9329 25.0641 28.0622 25.2 28.2266C25.3489 28.4175 25.4515 28.6404 25.4997 28.8776C25.5667 29.1841 25.5984 29.4974 25.5943 29.8111V35.0014H27.3429V29.4514C27.3441 29.1237 27.3219 28.7964 27.2766 28.4719C27.4748 28.3418 27.6801 28.2228 27.8914 28.1153C28.1587 27.9808 28.4406 27.8773 28.7314 27.807C29.0063 27.7397 29.2882 27.7052 29.5711 27.7042C29.823 27.6981 30.0736 27.7418 30.3086 27.8326C30.5084 27.9141 30.6851 28.0435 30.8229 28.2095C30.972 28.4003 31.0747 28.6232 31.1229 28.8604C31.1897 29.167 31.2213 29.4802 31.2172 29.794V35.0014H32.9657V29.4343C32.9879 28.7864 32.8831 28.1405 32.6572 27.5329C32.4795 27.0747 32.1538 26.6889 31.7317 26.4366ZM37.0543 22.5053C36.8764 22.3966 36.6714 22.3402 36.4629 22.3426C36.2517 22.341 36.0442 22.3972 35.8629 22.5053C35.684 22.6098 35.5338 22.7569 35.4257 22.9336C35.317 23.1114 35.2605 23.3162 35.2629 23.5245C35.2624 23.7337 35.3178 23.9392 35.4232 24.1198C35.5287 24.3005 35.6804 24.4498 35.8629 24.5523C36.0459 24.6553 36.2528 24.7085 36.4629 24.7065C36.6703 24.7091 36.8746 24.6559 37.0543 24.5523C37.2308 24.4505 37.376 24.3024 37.4743 24.1241C37.5774 23.9412 37.6306 23.7344 37.6286 23.5245C37.6311 23.3173 37.5778 23.1132 37.4743 22.9336C37.3726 22.7578 37.2282 22.6105 37.0543 22.5053ZM35.5543 35.0014H37.3029V26.094L35.5543 26.3509V35.0014ZM47.6057 26.205C47.2851 26.2911 46.9788 26.4238 46.6969 26.599C46.4045 26.7814 46.1343 26.997 45.8914 27.2414C45.8509 27.2819 45.8114 27.327 45.7712 27.3699V26.094L44.0229 26.3509V35.0014H45.7714V28.5298C45.9014 28.4391 46.0358 28.3551 46.1743 28.278C46.3457 28.1835 46.5233 28.1006 46.7057 28.0296C46.8827 27.9611 47.0627 27.9012 47.2457 27.8498C47.434 27.7974 47.6261 27.7602 47.8203 27.7384C48.028 27.7157 48.2371 27.7099 48.4457 27.7213L48.6514 26.1108C48.3002 26.0859 47.9472 26.1177 47.606 26.205M57.6857 33.9051C57.7848 33.892 57.8824 33.8691 57.9769 33.8366L57.7883 34.9843C57.7243 35.0092 57.6585 35.0293 57.5914 35.0442C57.5169 35.0614 57.434 35.0811 57.3429 35.1042C57.25 35.1269 57.1552 35.1413 57.0597 35.147C56.9629 35.1524 56.8629 35.1556 56.76 35.1556C56.4255 35.1615 56.0933 35.1003 55.7829 34.9757C55.502 34.8603 55.267 34.6556 55.1143 34.3933C55.0246 34.2367 54.9618 34.0662 54.9286 33.8888C54.8226 34.0143 54.71 34.134 54.5914 34.2477C54.2789 34.5433 53.9122 34.776 53.5114 34.9329C53.0477 35.1026 52.5563 35.1839 52.0626 35.1727C51.5359 35.1911 51.0133 35.0731 50.5457 34.8301C50.1623 34.6243 49.8467 34.312 49.6372 33.9308C49.4371 33.5599 49.3338 33.1445 49.3369 32.7232C49.3345 32.274 49.4692 31.8349 49.7229 31.4641C50.0214 31.0473 50.4271 30.7188 50.8972 30.5134C51.5251 30.2383 52.2003 30.0871 52.8857 30.0681L54.8894 29.9325L54.8914 29.5028C54.8962 29.2111 54.8615 28.9201 54.7883 28.6377C54.7291 28.4086 54.6109 28.199 54.4454 28.0296C54.2595 27.8557 54.0322 27.7319 53.7852 27.6699C53.4466 27.583 53.0978 27.5426 52.7483 27.55C52.5197 27.55 52.2883 27.5586 52.054 27.5757C51.8153 27.5934 51.5777 27.6249 51.3426 27.6699C51.1026 27.716 50.8539 27.7731 50.5966 27.8412C50.3392 27.9094 50.0679 27.995 49.7826 28.0982L49.988 26.6421C50.2821 26.5251 50.5827 26.425 50.8883 26.3424C51.2176 26.2537 51.5527 26.1879 51.8912 26.1454C52.2493 26.0994 52.6101 26.0765 52.9712 26.0769C53.4263 26.0719 53.8805 26.1179 54.3254 26.2139C54.6893 26.2914 55.0391 26.4243 55.3626 26.6079C55.641 26.7675 55.8832 26.9833 56.0737 27.2414C56.2626 27.5055 56.4022 27.8016 56.4857 28.1153C56.5803 28.4729 56.6263 28.8417 56.6226 29.2116L56.5886 32.7403C56.552 33.0553 56.618 33.3737 56.7769 33.6482C56.8581 33.7442 56.9613 33.8193 57.0777 33.867C57.1942 33.9147 57.3204 33.9337 57.4457 33.9222C57.526 33.9214 57.6062 33.9157 57.6857 33.9051ZM54.8763 32.8816L54.8837 31.1815H53.3826C52.9329 31.1693 52.4836 31.2154 52.0457 31.3185C51.7598 31.363 51.5021 31.5162 51.3264 31.746C51.1507 31.9758 51.0706 32.2645 51.1029 32.5519C51.0962 32.7889 51.1555 33.0232 51.2743 33.2285C51.3946 33.4221 51.5711 33.5745 51.7803 33.6653C52.0374 33.7749 52.3152 33.8275 52.5946 33.8195C52.839 33.8201 53.0829 33.7972 53.3229 33.7509C53.5545 33.7063 53.7793 33.6314 53.9914 33.5283C54.2044 33.4246 54.4056 33.2983 54.5914 33.1514C54.6942 33.0698 54.7898 32.9795 54.8772 32.8816M65.554 22.3255L67.3023 22.0856V35.0014H65.88L65.6646 34.2094C65.5363 34.3025 65.4074 34.391 65.2794 34.4704C64.9092 34.7024 64.5081 34.8812 64.088 35.0014C63.6666 35.1175 63.2312 35.1752 62.794 35.1727C62.0811 35.1926 61.377 35.0116 60.7623 34.6503C60.191 34.2959 59.7377 33.7803 59.4597 33.1685C59.1407 32.4523 58.9855 31.674 59.0052 30.8903C58.9766 29.9824 59.1833 29.0826 59.6052 28.278C59.9662 27.6078 60.5033 27.0486 61.1588 26.6607C61.8142 26.2729 62.5631 26.071 63.3249 26.0769C63.7248 26.0736 64.124 26.1109 64.5163 26.1882C64.8521 26.2557 65.1818 26.3502 65.5023 26.4708C65.52 26.4777 65.5363 26.486 65.5537 26.4928L65.554 22.3255ZM65.554 33.0866V27.807C65.4643 27.7741 65.372 27.7387 65.2883 27.7122C65.0279 27.6285 64.7612 27.5655 64.4909 27.5237C64.2185 27.4831 63.9434 27.463 63.668 27.4638C63.133 27.4492 62.6037 27.5763 62.1337 27.8321C61.7017 28.0816 61.3574 28.4586 61.148 28.9112C60.9024 29.4691 60.7852 30.075 60.8052 30.6842C60.7861 31.2788 60.8912 31.871 61.1137 32.4228C61.2912 32.853 61.604 33.2138 62.0049 33.4506C62.4359 33.6838 62.9209 33.799 63.4109 33.7846C63.8308 33.7739 64.2457 33.6899 64.6366 33.5363C64.9554 33.4143 65.2623 33.2636 65.5537 33.086M71.4763 22.5053C71.2985 22.3967 71.0936 22.3403 70.8852 22.3426C70.674 22.341 70.4665 22.3973 70.2852 22.5053C70.1064 22.6099 69.9563 22.757 69.8483 22.9336C69.7394 23.1113 69.683 23.3162 69.6854 23.5245C69.6835 23.7355 69.7399 23.943 69.8483 24.1241C69.9531 24.3034 70.1042 24.4513 70.2857 24.5523C70.4688 24.6553 70.6757 24.7085 70.8857 24.7065C71.0931 24.7091 71.2973 24.6559 71.4769 24.5523C71.6535 24.4506 71.7988 24.3025 71.8972 24.1241C72.0001 23.9411 72.0533 23.7344 72.0514 23.5245C72.0538 23.3173 72.0005 23.1132 71.8972 22.9336C71.7955 22.7577 71.6509 22.6104 71.4769 22.5053M69.9769 35.0014H71.7257V26.094L69.9769 26.3509V35.0014ZM82.68 30.5306C82.7014 31.3882 82.5038 32.2372 82.106 32.9975C81.7389 33.678 81.182 34.2372 80.5029 34.6074C79.7755 34.9945 78.9611 35.1891 78.1372 35.1727C77.3501 35.1896 76.5716 35.0069 75.8743 34.6417C75.2265 34.2916 74.7026 33.7502 74.3743 33.0915C74.0087 32.3368 73.8295 31.5057 73.8514 30.6676C73.83 29.8229 74.0216 28.9864 74.4086 28.2352C74.7648 27.5656 75.3064 27.0125 75.9686 26.6421C76.6898 26.2735 77.4879 26.0799 78.298 26.0769C79.1081 26.0739 79.9075 26.2617 80.6314 26.625C81.2792 26.9808 81.8071 27.5202 82.1486 28.1752C82.517 28.9047 82.6995 29.7137 82.68 30.5306ZM80.8629 30.5648C80.8675 30.1345 80.8157 29.7055 80.7086 29.2887C80.6185 28.9324 80.4583 28.5975 80.2374 28.3037C80.0301 28.0335 79.7591 27.8187 79.4486 27.6785C79.0939 27.5279 78.711 27.4549 78.3257 27.4644C77.8322 27.4507 77.3439 27.569 76.9114 27.807C76.507 28.0469 76.1867 28.4058 75.9943 28.8347C75.7595 29.3804 75.6483 29.9712 75.6686 30.5648C75.6499 31.175 75.7609 31.7822 75.9943 32.3463C76.1702 32.7877 76.4794 33.1634 76.8787 33.4212C77.2781 33.6791 77.7479 33.8063 78.2229 33.7852C78.7033 33.7939 79.1772 33.6725 79.5943 33.434C80.0093 33.1827 80.3358 32.8086 80.5283 32.3634C80.7685 31.7951 80.8829 31.1815 80.8629 30.5648Z" fill="#9FDAF5"/>
</svg>

<svg xmlns="http://www.w3.org/2000/svg" viewBox="0 0 83 41"><path fill="#fff" d="M0 17.997v-12h3.937v12H0Zm9.294-10.09 2.264 10.09H7.25l-2.704-12h2.417a2.276 2.276 0 0 1 1.513.55c.42.346.71.826.819 1.36Zm2.855 10.09v-12h3.938v12h-3.938Zm6.912-7.436a2.381 2.381 0 0 1-2.078-1.192 2.345 2.345 0 0 1-.322-1.208 2.301 2.301 0 0 1 .321-1.2 2.41 2.41 0 0 1 3.278-.862c.356.21.653.506.862.862.215.363.326.778.321 1.2a2.35 2.35 0 0 1-.321 1.208c-.207.36-.504.66-.862.87a2.301 2.301 0 0 1-1.2.322Zm2.99 7.436v-12h3.938v12h-3.937Zm8.923-5.442c.01.011.095.15.253.414s.364.602.617 1.014a309.436 309.436 0 0 1 1.597 2.62c.247.41.529.875.845 1.394H29.96c-.27-.44-.516-.837-.736-1.192-.22-.355-.453-.738-.7-1.15-.248-.41-.493-.81-.736-1.199a60.12 60.12 0 0 1-.625-1.022 18.04 18.04 0 0 0-.363-.592 1.747 1.747 0 0 1-.287-.845c.016-.29.11-.57.27-.811.067-.113.191-.313.371-.6a182.106 182.106 0 0 0 1.37-2.23l.7-1.159.736-1.2h4.326l-3.346 5.46a1.079 1.079 0 0 0-.17.54c.012.202.082.396.203.558Z"/><path fill="#9FDAF5" d="M8.032 30.24c.14.419.206.86.197 1.301a3.79 3.79 0 0 1-.352 1.722 2.9 2.9 0 0 1-.994 1.122c-.454.296-.96.505-1.491.616-.6.13-1.212.193-1.826.189-.274 0-.546-.012-.814-.034a12.994 12.994 0 0 1-.806-.095 7.98 7.98 0 0 1-.831-.17c-.302-.08-.6-.174-.892-.284L0 32.912c.274.102.563.202.866.3.303.097.614.18.934.248.32.068.64.123.96.163.307.039.616.059.926.06.318.002.636-.02.951-.07.258-.038.509-.113.746-.222.21-.097.396-.237.548-.41.152-.177.268-.38.343-.6.085-.254.125-.52.12-.788a1.907 1.907 0 0 0-.128-.737 1.445 1.445 0 0 0-.351-.514 2.235 2.235 0 0 0-.54-.36 4.336 4.336 0 0 0-.712-.265 16.408 16.408 0 0 0-.857-.214c-.378-.08-.746-.177-1.106-.291a6.322 6.322 0 0 1-1.003-.411 3.304 3.304 0 0 1-.822-.6 2.476 2.476 0 0 1-.558-.865A3.32 3.32 0 0 1 .12 26.13a3.482 3.482 0 0 1 .317-1.542c.208-.43.52-.801.909-1.08a4.074 4.074 0 0 1 1.397-.633 7.285 7.285 0 0 1 1.8-.206c.297 0 .588.014.874.043.282.028.562.07.84.128a9.9 9.9 0 0 1 .814.206c.264.078.52.181.763.308l-.24 1.508a4.318 4.318 0 0 0-.677-.3 6.57 6.57 0 0 0-.763-.214 7.828 7.828 0 0 0-1.611-.171 6.008 6.008 0 0 0-.883.06 2.544 2.544 0 0 0-.711.205c-.198.092-.38.213-.54.36a1.305 1.305 0 0 0-.343.522 2.051 2.051 0 0 0-.112.703c-.005.23.032.46.112.676.071.185.186.349.334.48.158.137.334.252.523.342.22.104.45.188.686.248.257.069.534.137.83.206.39.08.766.177 1.132.291.357.11.704.251 1.038.42.318.16.607.371.857.625.253.264.446.58.565.925m9.935 3.666c.099-.013.197-.036.291-.068l-.188 1.147c-.064.025-.13.045-.198.06l-.248.06a1.587 1.587 0 0 1-.283.043 5.416 5.416 0 0 1-.3.009 2.504 2.504 0 0 1-.977-.18 1.382 1.382 0 0 1-.669-.583 1.62 1.62 0 0 1-.185-.504 4.574 4.574 0 0 1-.338.359 3.343 3.343 0 0 1-1.08.685c-.463.17-.954.25-1.448.24a3.06 3.06 0 0 1-1.517-.343 2.254 2.254 0 0 1-.909-.9 2.505 2.505 0 0 1-.3-1.207c-.002-.449.133-.888.386-1.259a2.853 2.853 0 0 1 1.174-.95 5.326 5.326 0 0 1 1.989-.446l2.004-.136.001-.43a3.235 3.235 0 0 0-.102-.864 1.363 1.363 0 0 0-.343-.608 1.5 1.5 0 0 0-.66-.36 3.85 3.85 0 0 0-1.037-.12c-.229 0-.46.009-.695.026-.239.017-.476.049-.711.094a9.881 9.881 0 0 0-1.56.428l.206-1.456c.294-.117.594-.217.9-.3.329-.088.664-.154 1.003-.197a8.419 8.419 0 0 1 1.08-.068c.455-.005.909.04 1.354.137.364.077.713.21 1.037.394.278.16.52.375.712.633.188.265.327.56.41.874.096.358.142.727.138 1.097l-.034 3.528c-.037.315.03.634.188.908a.781.781 0 0 0 .669.274c.08 0 .16-.006.24-.017Zm-2.81-1.023.008-1.7h-1.5a5.22 5.22 0 0 0-1.338.137c-.28.06-.534.21-.72.428-.161.236-.24.52-.223.805-.007.237.052.471.171.676.12.194.297.346.506.437.257.11.535.162.814.154.245.001.489-.022.729-.068.232-.045.456-.12.668-.223.213-.103.415-.23.6-.377.103-.081.199-.171.286-.27M15.96 22H14.11l-1.458 3.066h1.338L15.96 22Zm15.772 4.437a2.987 2.987 0 0 0-1.526-.36 4.014 4.014 0 0 0-1.354.231c-.442.158-.858.38-1.235.66-.213.157-.416.329-.608.513a2.147 2.147 0 0 0-.883-1.028 3.025 3.025 0 0 0-1.543-.36c-.458 0-.913.079-1.345.232a4.867 4.867 0 0 0-1.603.936v-1.167l-1.749.257V35h1.749v-6.515c.206-.135.42-.256.642-.362.272-.129.557-.23.85-.3.268-.066.544-.1.822-.103.254-.007.508.036.745.129.197.083.37.212.506.377.149.19.252.413.3.65.067.307.098.62.094.934v5.19h1.749v-5.55a6.902 6.902 0 0 0-.066-.98c.198-.13.403-.248.614-.356.268-.134.55-.238.84-.308.275-.067.557-.102.84-.103.252-.006.503.038.738.129.2.081.376.21.514.377.149.19.252.413.3.65.067.307.098.62.094.934v5.207h1.749v-5.567a4.968 4.968 0 0 0-.309-1.901 2.207 2.207 0 0 0-.925-1.096Zm5.322-3.932a1.11 1.11 0 0 0-.591-.162 1.154 1.154 0 0 0-.6.162c-.179.105-.33.252-.437.429a1.176 1.176 0 0 0 .437 1.619 1.2 1.2 0 0 0 .6.153c.207.003.412-.05.591-.154.177-.101.322-.25.42-.428.103-.183.157-.39.155-.6a1.156 1.156 0 0 0-.155-.59 1.207 1.207 0 0 0-.42-.429Zm-1.5 12.496h1.749v-8.907l-1.749.257V35Zm12.052-8.796c-.32.086-.627.219-.91.394a4.475 4.475 0 0 0-.805.642c-.04.04-.08.086-.12.129v-1.276l-1.748.257V35h1.748V28.53a4.425 4.425 0 0 1 .934-.5c.178-.069.358-.129.54-.18a3.67 3.67 0 0 1 1.2-.129l.206-1.61a3.281 3.281 0 0 0-1.045.094m10.08 7.7a1.5 1.5 0 0 0 .29-.068l-.188 1.147a1.35 1.35 0 0 1-.197.06l-.248.06a1.593 1.593 0 0 1-.283.043 5.377 5.377 0 0 1-.3.009 2.504 2.504 0 0 1-.977-.18 1.38 1.38 0 0 1-.669-.583 1.611 1.611 0 0 1-.185-.504 4.686 4.686 0 0 1-.338.359c-.312.295-.679.528-1.08.685-.463.17-.955.25-1.448.24-.527.018-1.05-.1-1.517-.343a2.252 2.252 0 0 1-.909-.9c-.2-.37-.303-.785-.3-1.207-.003-.449.132-.888.386-1.259a2.846 2.846 0 0 1 1.174-.95 5.323 5.323 0 0 1 1.989-.446l2.003-.136.002-.43a3.236 3.236 0 0 0-.103-.864 1.355 1.355 0 0 0-.343-.608 1.502 1.502 0 0 0-.66-.36 3.844 3.844 0 0 0-1.037-.12c-.228 0-.46.009-.694.026-.239.017-.476.049-.711.094a9.719 9.719 0 0 0-1.56.428l.205-1.456c.294-.117.595-.217.9-.3a7.4 7.4 0 0 1 1.003-.197 8.404 8.404 0 0 1 1.08-.068c.455-.005.91.04 1.354.137.364.077.714.21 1.038.394.278.16.52.375.71.633.19.265.33.56.413.874.094.358.14.727.137 1.097l-.034 3.528c-.037.315.029.634.188.908a.783.783 0 0 0 .669.274c.08 0 .16-.006.24-.017Zm-2.81-1.023.008-1.7h-1.501a5.216 5.216 0 0 0-1.337.137 1.123 1.123 0 0 0-.943 1.233c-.007.237.053.471.171.676.12.194.297.346.506.437.257.11.535.163.815.154.244.001.488-.022.728-.068.231-.045.456-.12.668-.223.213-.103.415-.23.6-.377a2.3 2.3 0 0 0 .286-.27m10.677-10.555 1.748-.24V35H65.88l-.215-.792a6.46 6.46 0 0 1-.386.261c-.37.232-.77.411-1.191.531a4.77 4.77 0 0 1-1.294.172 3.8 3.8 0 0 1-2.032-.523 3.398 3.398 0 0 1-1.302-1.481 5.274 5.274 0 0 1-.455-2.279 5.268 5.268 0 0 1 .6-2.612 4.186 4.186 0 0 1 3.72-2.201 5.91 5.91 0 0 1 2.177.394l.052.022v-4.167Zm0 10.76v-5.279c-.09-.033-.182-.068-.266-.095a5.206 5.206 0 0 0-1.62-.248 3.036 3.036 0 0 0-1.534.368 2.42 2.42 0 0 0-.986 1.08 4.07 4.07 0 0 0-.343 1.772c-.019.595.086 1.187.309 1.739.177.43.49.79.89 1.028.432.233.917.348 1.407.334.42-.011.835-.095 1.226-.249.318-.122.625-.272.917-.45m5.922-10.58a1.11 1.11 0 0 0-.59-.163 1.155 1.155 0 0 0-.6.162 1.255 1.255 0 0 0-.438.429 1.107 1.107 0 0 0-.163.59c-.002.211.055.419.163.6a1.2 1.2 0 0 0 1.037.582c.208.003.412-.05.592-.154.176-.101.322-.25.42-.428.103-.183.156-.39.154-.6a1.158 1.158 0 0 0-.154-.59 1.205 1.205 0 0 0-.42-.429m-1.5 12.496h1.749v-8.907l-1.75.257V35Zm12.703-4.47a5.05 5.05 0 0 1-.574 2.467 3.993 3.993 0 0 1-1.603 1.61 4.831 4.831 0 0 1-2.366.565 4.662 4.662 0 0 1-2.263-.531 3.575 3.575 0 0 1-1.5-1.55 5.245 5.245 0 0 1-.523-2.424 5.033 5.033 0 0 1 .558-2.433 3.952 3.952 0 0 1 1.56-1.593 5.16 5.16 0 0 1 4.662-.017 3.743 3.743 0 0 1 1.518 1.55c.368.73.55 1.539.531 2.356Zm-1.817.034c.005-.43-.047-.86-.154-1.276a2.769 2.769 0 0 0-.472-.985 2.066 2.066 0 0 0-.788-.625 2.703 2.703 0 0 0-1.123-.215 2.774 2.774 0 0 0-1.415.343 2.28 2.28 0 0 0-.917 1.028 4.029 4.029 0 0 0-.325 1.73c-.02.61.092 1.217.325 1.781a2.288 2.288 0 0 0 2.229 1.44c.48.008.954-.114 1.371-.352.415-.251.742-.625.934-1.07.24-.569.355-1.182.335-1.8Z"/></svg>
